icons/line/backspace.svg

<svg width="24" height="24" viewBox="0 0 24 24" fill="none" xmlns="http://www.w3.org/2000/svg">
<path d="M16 10L14 12M12 14L14 12M14 12L12 10M14 12L16 14M7.41421 6.58579L3.41421 10.5858C2.63316 11.3668 2.63317 12.6332 3.41421 13.4142L7.41421 17.4142C7.78929 17.7893 8.29799 18 8.82843 18H19C20.1046 18 21 17.1046 21 16V8C21 6.89543 20.1046 6 19 6H8.82843C8.29799 6 7.78929 6.21071 7.41421 6.58579Z" stroke="currentColor" stroke-width="2" stroke-linecap="round" stroke-linejoin="round"/>
</svg>

<svg width="24" height="24" fill="none" xmlns="http://www.w3.org/2000/svg"><path d="M16 10l-2 2m-2 2l2-2m0 0l-2-2m2 2l2 2M7.414 6.586l-4 4a2 2 0 000 2.828l4 4A2 2 0 008.828 18H19a2 2 0 002-2V8a2 2 0 00-2-2H8.828a2 2 0 00-1.414.586z" stroke="currentColor" stroke-width="2" stroke-linecap="round" stroke-linejoin="round"/></svg>
